symbolic/32x32/apps/methane.svg

<svg width="32" height="32" xmlns="http://www.w3.org/2000/svg"><path d="M11.5 3A8.5 10.5 0 0 0 3 13.5 8.5 10.5 0 0 0 11.5 24a8.5 10.5 0 0 0 4.506-1.604A8.5 10.5 0 0 0 20.5 24 8.5 10.5 0 0 0 29 13.5 8.5 10.5 0 0 0 20.5 3a8.5 10.5 0 0 0-4.506 1.604A8.5 10.5 0 0 0 11.5 3z" style="opacity:.2"/><path d="M11.5 2A8.5 10.5 0 0 0 3 12.5 8.5 10.5 0 0 0 11.5 23a8.5 10.5 0 0 0 4.506-1.604A8.5 10.5 0 0 0 20.5 23 8.5 10.5 0 0 0 29 12.5 8.5 10.5 0 0 0 20.5 2a8.5 10.5 0 0 0-4.506 1.604A8.5 10.5 0 0 0 11.5 2z" style="fill:#802883"/><path d="M11.5 6A5.5 7.5 0 0 0 6 13.5a5.5 7.5 0 0 0 5.5 7.5 5.5 7.5 0 0 0 4.502-3.2A5.5 7.5 0 0 0 20.5 21a5.5 7.5 0 0 0 5.5-7.5A5.5 7.5 0 0 0 20.5 6a5.5 7.5 0 0 0-4.502 3.2A5.5 7.5 0 0 0 11.5 6z" style="opacity:.2"/><path d="M11.5 5A5.5 7.5 0 0 0 6 12.5a5.5 7.5 0 0 0 5.5 7.5 5.5 7.5 0 0 0 4.502-3.2A5.5 7.5 0 0 0 20.5 20a5.5 7.5 0 0 0 5.5-7.5A5.5 7.5 0 0 0 20.5 5a5.5 7.5 0 0 0-4.502 3.2A5.5 7.5 0 0 0 11.5 5z" style="fill:#fff"/><circle cx="16" cy="23" r="8" style="opacity:.2"/><circle cx="16" cy="22" r="8" style="fill:#a935ad"/><circle cx="16" cy="23" r="5" style="opacity:.2"/><circle cx="16" cy="22" r="5" style="fill:#b7b7e1"/><circle cx="13.5" cy="11.5" r="1.5" style="fill:#3f3f3f"/><circle cx="18.5" cy="11.5" r="1.5" style="fill:#3f3f3f"/><path d="M16 17a1 1 0 0 0-1 1 1 1 0 0 0 1 1 1 1 0 0 0 1-1 1 1 0 0 0-1-1zm-4 4a1 1 0 0 0-1 1 1 1 0 0 0 1 1 1 1 0 0 0 1-1 1 1 0 0 0-1-1zm4 0a1 1 0 0 0-1 1 1 1 0 0 0 1 1 1 1 0 0 0 1-1 1 1 0 0 0-1-1zm4 0a1 1 0 0 0-1 1 1 1 0 0 0 1 1 1 1 0 0 0 1-1 1 1 0 0 0-1-1zm-4 4a1 1 0 0 0-1 1 1 1 0 0 0 1 1 1 1 0 0 0 1-1 1 1 0 0 0-1-1z" style="opacity:.3"/><path d="M11.5 2A8.5 10.5 0 0 0 3 12.5a8.5 10.5 0 0 0 .018.414A8.5 10.5 0 0 1 11.5 3a8.5 10.5 0 0 1 4.494 1.604A8.5 10.5 0 0 1 20.5 3a8.5 10.5 0 0 1 8.482 10.086A8.5 10.5 0 0 0 29 12.5 8.5 10.5 0 0 0 20.5 2a8.5 10.5 0 0 0-4.506 1.604A8.5 10.5 0 0 0 11.5 2z" style="fill:#fff;opacity:.1"/><path d="M16 14a8 8 0 0 0-8 8 8 8 0 0 0 .021.576A8 8 0 0 1 16 15a8 8 0 0 1 7.979 7.424A8 8 0 0 0 24 22a8 8 0 0 0-8-8z" style="fill:#fff;opacity:.2"/></svg>

<svg width="32" height="32" version="1.1" xmlns="http://www.w3.org/2000/svg">
 <path d="M 11.5,3 A 8.5,10.5 0 0 0 3,13.5 8.5,10.5 0 0 0 11.5,24 8.5,10.5 0 0 0 16.005859,22.396484 8.5,10.5 0 0 0 20.5,24 8.5,10.5 0 0 0 29,13.5 8.5,10.5 0 0 0 20.5,3 8.5,10.5 0 0 0 15.994141,4.6035156 8.5,10.5 0 0 0 11.5,3 Z" style="opacity:.2"/>
 <path d="M 11.5 2 A 8.5 10.5 0 0 0 3 12.5 A 8.5 10.5 0 0 0 11.5 23 A 8.5 10.5 0 0 0 16.005859 21.396484 A 8.5 10.5 0 0 0 20.5 23 A 8.5 10.5 0 0 0 29 12.5 A 8.5 10.5 0 0 0 20.5 2 A 8.5 10.5 0 0 0 15.994141 3.6035156 A 8.5 10.5 0 0 0 11.5 2 z " style="fill:#802883"/>
 <path d="M 11.5,6 A 5.5,7.5 0 0 0 6,13.5 5.5,7.5 0 0 0 11.5,21 5.5,7.5 0 0 0 16.001953,17.800781 5.5,7.5 0 0 0 20.5,21 5.5,7.5 0 0 0 26,13.5 5.5,7.5 0 0 0 20.5,6 5.5,7.5 0 0 0 15.998047,9.1992188 5.5,7.5 0 0 0 11.5,6 Z" style="opacity:.2"/>
 <path d="M 11.5 5 A 5.5 7.5 0 0 0 6 12.5 A 5.5 7.5 0 0 0 11.5 20 A 5.5 7.5 0 0 0 16.001953 16.800781 A 5.5 7.5 0 0 0 20.5 20 A 5.5 7.5 0 0 0 26 12.5 A 5.5 7.5 0 0 0 20.5 5 A 5.5 7.5 0 0 0 15.998047 8.1992188 A 5.5 7.5 0 0 0 11.5 5 z " style="fill:#ffffff"/>
 <circle cx="16" cy="23" r="8" style="opacity:.2"/>
 <circle cx="16" cy="22" r="8" style="fill:#a935ad"/>
 <circle cx="16" cy="23" r="5" style="opacity:.2"/>
 <circle cx="16" cy="22" r="5" style="fill:#b7b7e1"/>
 <circle cx="13.5" cy="11.5" r="1.5" style="fill:#3f3f3f"/>
 <circle cx="18.5" cy="11.5" r="1.5" style="fill:#3f3f3f"/>
 <path d="m16 17a1 1 0 0 0-1 1 1 1 0 0 0 1 1 1 1 0 0 0 1-1 1 1 0 0 0-1-1zm-4 4a1 1 0 0 0-1 1 1 1 0 0 0 1 1 1 1 0 0 0 1-1 1 1 0 0 0-1-1zm4 0a1 1 0 0 0-1 1 1 1 0 0 0 1 1 1 1 0 0 0 1-1 1 1 0 0 0-1-1zm4 0a1 1 0 0 0-1 1 1 1 0 0 0 1 1 1 1 0 0 0 1-1 1 1 0 0 0-1-1zm-4 4a1 1 0 0 0-1 1 1 1 0 0 0 1 1 1 1 0 0 0 1-1 1 1 0 0 0-1-1z" style="opacity:.3"/>
 <path d="M 11.5 2 A 8.5 10.5 0 0 0 3 12.5 A 8.5 10.5 0 0 0 3.0175781 12.914062 A 8.5 10.5 0 0 1 11.5 3 A 8.5 10.5 0 0 1 15.994141 4.6035156 A 8.5 10.5 0 0 1 20.5 3 A 8.5 10.5 0 0 1 28.982422 13.085938 A 8.5 10.5 0 0 0 29 12.5 A 8.5 10.5 0 0 0 20.5 2 A 8.5 10.5 0 0 0 15.994141 3.6035156 A 8.5 10.5 0 0 0 11.5 2 z " style="fill:#ffffff;opacity:.1"/>
 <path d="M 16 14 A 8 8 0 0 0 8 22 A 8 8 0 0 0 8.0214844 22.576172 A 8 8 0 0 1 16 15 A 8 8 0 0 1 23.978516 22.423828 A 8 8 0 0 0 24 22 A 8 8 0 0 0 16 14 z " style="fill:#ffffff;opacity:.2"/>
</svg>
